Obsidian-SemiLight/actions/22s/mode4.svg

<svg viewBox="0 0 22 22" xmlns="http://www.w3.org/2000/svg"><path d="m3 3v1h7v-1zm9 0v1h7v-1zm-9 3v1h7v-1zm9 0v1h7v-1zm-9 3v1h7v-1zm9 0v1h7v-1zm-9 4v1h7v-1zm15 0c-.44597.00075-.883628.120786-1.267578.347656.20712.26173.383334.545835.509766.859375.229729-.13513.491302-.206571.757812-.207031h2.009766v-1zm-5 3-2 1.5 2 1.5v-1h1c.44597-.00075.883628-.120786 1.267578-.347656-.20712-.26173-.383334-.545835-.509766-.859375-.229728.13513-.491302.206571-.757812.207031h-1zm-10 1v1h7v-1z" fill="#4d4d4d"/><path d="m13 12-2 1.5 2 1.5v-1h1c.82843 0 1.5.67157 1.5 1.5 0 1.38072 1.11929 2.50001 2.5 2.5h2.03125v-1h-2.03125c-.82843 0-1.5-.67157-1.5-1.5 0-1.38072-1.11929-2.50001-2.5-2.5h-1z" fill="#3daee9"/></svg>

<svg xmlns="http://www.w3.org/2000/svg" viewBox="0 0 22 22">
  <defs id="defs3051">
    <style type="text/css" id="current-color-scheme">
      .ColorScheme-Text {
        color:#4d4d4d;
      }
      .ColorScheme-Highlight {
        color:#3daee9;
      }
      </style>
  </defs>
 <path 
     style="fill:currentColor;fill-opacity:1;stroke:none" 
     d="M 3 3 L 3 4 L 10 4 L 10 3 L 3 3 z M 12 3 L 12 4 L 19 4 L 19 3 L 12 3 z M 3 6 L 3 7 L 10 7 L 10 6 L 3 6 z M 12 6 L 12 7 L 19 7 L 19 6 L 12 6 z M 3 9 L 3 10 L 10 10 L 10 9 L 3 9 z M 12 9 L 12 10 L 19 10 L 19 9 L 12 9 z M 3 13 L 3 14 L 10 14 L 10 13 L 3 13 z M 18 13 C 17.55403 13.00075 17.116372 13.120786 16.732422 13.347656 C 16.939542 13.609386 17.115756 13.893491 17.242188 14.207031 C 17.471917 14.071901 17.73349 14.00046 18 14 L 20.009766 14 L 20.009766 13 L 18 13 z M 13 16 L 11 17.5 L 13 19 L 13 18 L 14 18 C 14.44597 17.99925 14.883628 17.879214 15.267578 17.652344 C 15.060458 17.390614 14.884244 17.106509 14.757812 16.792969 C 14.528084 16.928099 14.26651 16.99954 14 17 L 13 17 L 13 16 z M 3 17 L 3 18 L 10 18 L 10 17 L 3 17 z "
     class="ColorScheme-Text"
     />
 <path 
     style="fill:currentColor;fill-opacity:1;stroke:none" 
     d="M 13 12 L 11 13.5 L 13 15 L 13 14 L 14 14 C 14.82843 14 15.5 14.67157 15.5 15.5 C 15.5 16.88072 16.61929 18.00001 18 18 L 20.03125 18 L 20.03125 17 L 18 17 C 17.17157 17 16.5 16.32843 16.5 15.5 C 16.5 14.11928 15.38071 12.99999 14 13 L 13 13 L 13 12 z "
     class="ColorScheme-Highlight"
     />
</svg>
